X:1
T:[ID 2-106]
T:[ID 2-106]
T:Bezeichnung standardisiert: Post Menuet; Post Men\"uet
T:Urheber unbekannt Datum in der hier transkribierten schriftlichen Quelle: 1767
C:Urheber unbekannt
C:Datum in der hier transkribierten schriftlichen Quelle: 1767
L:1/8
M:3/4
K:Bb
V:1 treble 
V:1
 B2 BBBB | B2 b4 | B2 (3dcB (3dcB | Bdfa b2 | g2 f2 e2 | d2 e2 f2 | gfedcB | A2 GA F2 | B2 BBBB | %9
 B2 b4 | B2 (3dcB (3dcB | Bdfa b2 | g2 f2 e2 | d2 e2 f2 | gfedcB | A2 GA F2 gB Tc4 | B6 :: %17
 c2 fedc | d4 c2 | BABdcB | A4 G2 | F2 FFFF | F2 f4 | F2 (3AGF (3AGF | FA ce f2 | d2 c2 B2 | %26
 A3 B c2 | dB A2 G2 |{G} F6 | B2 dcBA | GB edcB | Ac fedc | Td4 c2 | B2 BBBB | B2 b4 | %35
 B2 (3dcB (3dcB | Bdfa b2 | g2 f2 e2 | d2 e2 f2 | ge d2 c2 | B6 :| %41

